archdroid-icon-theme/Archdroid-Purple/apps/scalable/preferences-system-network-proxy.svg

<svg fill="#9C27B0" height="48" viewBox="0 0 48 48" width="48" xmlns="http://www.w3.org/2000/svg"><path d="m18.99 23-3.99 4 3.99 4v-3h7.01v-2h-7.01zm14.01-2-3.99-4v3h-7.01v2h7.01v3zm2.54-10.04-3.08 2.55 8.7 10.49-8.7 10.48 3.08 2.55 10.82-13.03zm-20 2.56-3.08-2.55-10.82 13.03 10.82 13.04 3.08-2.55-8.7-10.49z" fill="#9C27B0"/></svg>

<svg fill="#9C27B0" height="48" version="1.1" viewBox="0 0 48 48" width="48" xmlns="http://www.w3.org/2000/svg"><path d="m18.99 23l-3.99 4 3.99 4 0-3L26 28l0-2-7.01 0 0-3zM33 21l-3.99-4 0 3-7.01 0 0 2L29.01 22l0 3L33 21ZM35.54 10.96L32.46 13.51 41.16 24 32.46 34.48 35.54 37.03 46.36 24 35.54 10.96Zm-20 2.56L12.46 10.97 1.64 24 12.46 37.04 15.54 34.49 6.84 24 15.54 13.52Z" fill="#9C27B0"/></svg>
